Numix/64/mimetypes/image-x-panasonic-raw.svg

<?xml version="1.0" encoding="UTF-8" standalone="no"?>
<svg
   xmlns:dc="http://purl.org/dc/elements/1.1/"
   xmlns:cc="http://creativecommons.org/ns#"
   xmlns:rdf="http://www.w3.org/1999/02/22-rdf-syntax-ns#"
   xmlns:svg="http://www.w3.org/2000/svg"
   xmlns="http://www.w3.org/2000/svg"
   xmlns:sodipodi="http://sodipodi.sourceforge.net/DTD/sodipodi-0.dtd"
   xmlns:inkscape="http://www.inkscape.org/namespaces/inkscape"
   width="64px"
   height="64px"
   viewBox="0 0 64 64"
   version="1.1"
   id="svg2"
   inkscape:version="0.91 r13725"
   sodipodi:docname="image-x-panasonic-raw.svg">
  <metadata
     id="metadata17">
    <rdf:RDF>
      <cc:Work
         rdf:about="">
        <dc:format>image/svg+xml</dc:format>
        <dc:type
           rdf:resource="http://purl.org/dc/dcmitype/StillImage" />
        <dc:title />
      </cc:Work>
    </rdf:RDF>
  </metadata>
  <defs
     id="defs15">
    <clipPath
       id="clipPath-258929573">
      <g
         transform="translate(0,-1004.3622)"
         id="g17">
        <path
           inkscape:connector-curvature="0"
           d="m -24,13 c 0,1.105 -0.672,2 -1.5,2 -0.828,0 -1.5,-0.895 -1.5,-2 0,-1.105 0.672,-2 1.5,-2 0.828,0 1.5,0.895 1.5,2 z"
           transform="matrix(15.333333,0,0,11.5,414.99999,878.8622)"
           style="fill:#1890d0"
           id="path19" />
      </g>
    </clipPath>
    <clipPath
       id="clipPath-258929573-3">
      <g
         transform="translate(0,-1004.3622)"
         id="g17-9">
        <path
           inkscape:connector-curvature="0"
           d="m -24,13 c 0,1.105 -0.672,2 -1.5,2 -0.828,0 -1.5,-0.895 -1.5,-2 0,-1.105 0.672,-2 1.5,-2 0.828,0 1.5,0.895 1.5,2 z"
           transform="matrix(15.333333,0,0,11.5,414.99999,878.8622)"
           style="fill:#1890d0"
           id="path19-8" />
      </g>
    </clipPath>
  </defs>
  <sodipodi:namedview
     pagecolor="#ffffff"
     bordercolor="#666666"
     borderopacity="1"
     objecttolerance="10"
     gridtolerance="10"
     guidetolerance="10"
     inkscape:pageopacity="0"
     inkscape:pageshadow="2"
     inkscape:window-width="1920"
     inkscape:window-height="1013"
     id="namedview13"
     showgrid="true"
     inkscape:zoom="22.627417"
     inkscape:cx="27.115233"
     inkscape:cy="26.991716"
     inkscape:window-x="0"
     inkscape:window-y="27"
     inkscape:window-maximized="1"
     inkscape:current-layer="svg2">
    <inkscape:grid
       type="xygrid"
       id="grid4461" />
  </sodipodi:namedview>
  <path
     inkscape:connector-curvature="0"
     id="path5"
     d="M 10.671875,0 C 9.296875,0 8,1.355469 8,2.789062 L 8,61.210938 C 8,62.566406 9.375,64 10.671875,64 l 42.65625,0 C 54.625,64 56,62.566406 56,61.210938 L 56,18 38,0 Z m 0,0"
     style="fill:#35a14c;fill-opacity:1;fill-rule:nonzero;stroke:none" />
  <path
     inkscape:connector-curvature="0"
     id="path7"
     d="m 42,18 14,14 0,-14 z m 0,0"
     style="fill:#000000;fill-opacity:0.19607801;fill-rule:nonzero;stroke:none" />
  <path
     inkscape:connector-curvature="0"
     id="path9"
     d="M 38,0 55.984375,18 40.757812,18 C 39.410156,18 38,16.574219 38,15.226562 Z m 0,0"
     style="fill:#ffffff;fill-opacity:0.39215698;fill-rule:nonzero;stroke:none" />
  <path
     inkscape:connector-curvature="0"
     id="path13"
     d="M 8,48 8,61.33594 C 8,62.63281 9.375,64 10.664062,64 l 42.671876,0 C 54.625,64 56,62.63281 56,61.33594 L 56,48 Z m 0,0"
     style="fill:#000000;fill-opacity:0.19607801;fill-rule:nonzero;stroke:none" />
  <path
     inkscape:connector-curvature="0"
     id="path4452"
     style="font-style:normal;font-variant:normal;font-weight:bold;font-stretch:normal;font-size:medium;line-height:125%;font-family:'Ubuntu Mono';-inkscape-font-specification:'Ubuntu Mono, Bold';text-align:start;letter-spacing:0px;word-spacing:0px;writing-mode:lr-tb;text-anchor:start;fill:#ffffff;fill-opacity:1;stroke:none;stroke-width:1px;stroke-linecap:butt;stroke-linejoin:miter;stroke-opacity:1"
     d="m 20.574713,51 q 0.852873,0 1.544827,0.210862 0.691954,0.210863 1.190804,0.65016 0.498851,0.439297 0.756322,1.1246 0.273564,0.667732 0.273564,1.58147 0,0.948882 -0.354024,1.722045 -0.354023,0.773163 -1.174712,1.177317 0.273563,0.456869 0.57931,1.01917 0.305747,0.544728 0.595402,1.159744 0.289656,0.597444 0.547127,1.21246 Q 24.806896,61.455272 25,62 l -2.075863,0 q -0.370115,-1.054313 -0.868964,-2.020766 -0.482759,-0.984026 -1.045978,-1.985623 l -1.029885,0 0,4.006389 L 18,62 18,51.28115 q 0.289655,-0.07029 0.627586,-0.123003 0.354023,-0.07029 0.708046,-0.08786 0.354023,-0.03514 0.675863,-0.05272 Q 20.333333,51 20.574713,51 Z m 1.754022,3.549521 q 0,-0.861023 -0.482758,-1.265175 -0.482759,-0.404155 -1.271264,-0.404155 -0.112644,0 -0.273564,0.01757 -0.16092,0 -0.321839,0.03514 l 0,3.268372 0.434483,0 q 1.013793,0 1.464367,-0.421726 0.450575,-0.439297 0.450575,-1.230031 z" />
  <path
     inkscape:connector-curvature="0"
     id="path4454"
     style="font-style:normal;font-variant:normal;font-weight:bold;font-stretch:normal;font-size:medium;line-height:125%;font-family:'Ubuntu Mono';-inkscape-font-specification:'Ubuntu Mono, Bold';text-align:start;letter-spacing:0px;word-spacing:0px;writing-mode:lr-tb;text-anchor:start;fill:#ffffff;fill-opacity:1;stroke:none;stroke-width:1px;stroke-linecap:butt;stroke-linejoin:miter;stroke-opacity:1"
     d="m 33.53527,62 -0.541495,-2.541195 -3.080913,0 L 29.390041,62 27,62 Q 27.821576,58.747981 28.661825,56.082391 29.502074,53.399032 30.286307,51 l 2.502074,0 q 0.821578,2.416802 1.624481,5.135703 Q 35.23444,58.836834 36,62 l -2.46473,0 z m -2.053943,-8.867528 q -0.186722,0.621971 -0.354772,1.19063 -0.149377,0.550888 -0.298755,1.101777 -0.130705,0.533119 -0.261411,1.084007 -0.112038,0.550889 -0.224066,1.137318 l 2.259337,0 q -0.112039,-0.586429 -0.224067,-1.137318 -0.112038,-0.550888 -0.26141,-1.084007 -0.130706,-0.550889 -0.298755,-1.101777 -0.149378,-0.568659 -0.336101,-1.19063 z" />
  <path
     inkscape:connector-curvature="0"
     id="path4456"
     style="font-style:normal;font-variant:normal;font-weight:bold;font-stretch:normal;font-size:medium;line-height:125%;font-family:'Ubuntu Mono';-inkscape-font-specification:'Ubuntu Mono, Bold';text-align:start;letter-spacing:0px;word-spacing:0px;writing-mode:lr-tb;text-anchor:start;fill:#ffffff;fill-opacity:1;stroke:none;stroke-width:1px;stroke-linecap:butt;stroke-linejoin:miter;stroke-opacity:1"
     d="m 42.810557,54.891762 q 0.07049,0.337641 0.211454,0.835217 0.140969,0.497577 0.299558,1.101778 0.176212,0.6042 0.370046,1.297254 0.211454,0.693052 0.405286,1.421647 0,-0.92407 -0.01762,-1.972536 -0.01762,-1.066236 -0.03524,-2.168013 -0.01762,-1.101778 -0.03524,-2.221324 Q 43.991181,52.048466 43.991181,51 l 2.008812,0 q -0.05287,1.350566 -0.105727,2.789985 -0.05287,1.421648 -0.123348,2.843295 -0.07049,1.403877 -0.176211,2.772214 Q 45.506614,60.77383 45.38326,62 l -1.797359,0 Q 43.198236,60.880453 42.810571,59.600969 42.422906,58.303717 42.03524,57.130857 41.647574,58.250405 41.224666,59.565429 40.801758,60.880453 40.449336,62 l -1.797358,0 Q 38.511008,60.77383 38.405282,59.405494 38.299554,58.019387 38.21145,56.615509 38.140962,55.193861 38.0881,53.772213 38.035235,52.332795 38,51 l 2.008812,0 q -0.01762,1.048466 -0.03524,2.168013 -0.01762,1.119549 -0.03524,2.239096 -0.01762,1.101777 -0.03524,2.168013 -0.01762,1.048466 -0.01762,1.972536 0.158592,-0.568659 0.352424,-1.243941 0.211454,-0.675283 0.387665,-1.332795 0.193832,-0.657512 0.352423,-1.208401 0.158591,-0.550888 0.246696,-0.870759 l 1.585905,0 z" />
  <g
     transform="matrix(0.80051185,0,0,0.80026785,12.788106,12.78717)"
     style="fill:#ffffff;fill-opacity:1"
     id="g59">
    <g
       id="g61"
       clip-path="url(#clipPath-258929573-3)"
       style="fill:#ffffff">
      <!-- color: #3d3d3d -->
      <g
         id="g63"
         style="fill:#ffffff">
        <path
           inkscape:connector-curvature="0"
           d="M 27.08,9.641 23.471,19.793 37.705,17.43 C 35.603,13.438 31.721,10.5 27.08,9.641 m 0,0"
           style="fill:#ffffff;fill-rule:nonzero;stroke:none"
           id="path65" />
        <path
           inkscape:connector-curvature="0"
           d="m 38.15,19.449 -10.738,1.988 9.199,10.98 c 2.457,-3.797 3.09,-8.586 1.527,-12.969 m 0.012,0"
           style="fill:#ffffff;fill-rule:nonzero;stroke:none"
           id="path67" />
        <path
           inkscape:connector-curvature="0"
           d="m 35.07,33.809 -7.121,-8.164 -5.05,13.344 c 4.566,0.195 9.09,-1.656 12.156,-5.18 m 0.012,0"
           style="fill:#ffffff;fill-rule:nonzero;stroke:none"
           id="path69" />
        <path
           inkscape:connector-curvature="0"
           d="m 20.922,38.36 3.617,-10.152 -14.242,2.363 c 2.109,3.996 5.996,6.934 10.625,7.789 m 0,0"
           style="fill:#ffffff;fill-rule:nonzero;stroke:none"
           id="path71" />
        <path
           inkscape:connector-curvature="0"
           d="M 9.852,28.559 20.586,26.571 11.387,15.591 C 8.934,19.392 8.297,24.177 9.86,28.56 m -0.008,0"
           style="fill:#ffffff;fill-rule:nonzero;stroke:none"
           id="path73" />
        <path
           inkscape:connector-curvature="0"
           d="m 12.926,14.207 7.121,8.164 5.05,-13.344 c -4.563,-0.195 -9.09,1.656 -12.152,5.18 m -0.016,0"
           style="fill:#ffffff;fill-rule:nonzero;stroke:none"
           id="path75" />
      </g>
    </g>
  </g>
</svg>

<svg xmlns="http://www.w3.org/2000/svg" viewBox="0 0 64 64">
 <defs>
  
 </defs>
 <path d="m 10.672 0 c -1.375 0 -2.672 1.355 -2.672 2.789 l 0 58.42 c 0 1.355 1.375 2.789 2.672 2.789 l 42.656 0 c 1.297 0 2.672 -1.434 2.672 -2.789 l 0 -43.21 -18 -18 m -27.328 0" style="fill:#35a14c;fill-opacity:1;stroke:none;fill-rule:nonzero"/>
 <path d="m 42 18 14 14 0 -14 z m 0 0" style="fill:#000;fill-opacity:0.196;stroke:none;fill-rule:nonzero"/>
 <path d="m 38 0 17.984 18 -15.227 0 c -1.348 0 -2.758 -1.426 -2.758 -2.773 m 0 -15.227" style="fill:#fff;fill-opacity:0.392;stroke:none;fill-rule:nonzero"/>
 <path d="m 8 48 0 13.336 c 0 1.297 1.375 2.664 2.664 2.664 l 42.672 0 c 1.289 0 2.664 -1.367 2.664 -2.664 l 0 -13.336 m -48 0" style="fill:#000;fill-opacity:0.196;stroke:none;fill-rule:nonzero"/>
 <path d="m 20.575 51 q 0.853 0 1.545 0.211 0.692 0.211 1.191 0.65 0.499 0.439 0.756 1.125 0.274 0.668 0.274 1.581 0 0.949 -0.354 1.722 -0.354 0.773 -1.175 1.177 0.274 0.457 0.579 1.019 0.306 0.545 0.595 1.16 0.29 0.597 0.547 1.212 q 0.274 0.597 0.467 1.142 l -2.076 0 q -0.37 -1.054 -0.869 -2.02 -0.483 -0.984 -1.046 -1.986 l -1.03 0 0 4.01 l -1.979 0 0 -10.719 q 0.29 -0.07 0.628 -0.123 0.354 -0.07 0.708 -0.088 0.354 -0.035 0.676 -0.053 q 0.322 -0.018 0.563 -0.018 m 1.754 3.55 q 0 -0.861 -0.483 -1.265 -0.483 -0.404 -1.271 -0.404 -0.113 0 -0.274 0.018 -0.161 0 -0.322 0.035 l 0 3.268 0.434 0 q 1.014 0 1.464 -0.422 0.451 -0.439 0.451 -1.23 z" style="fill:#fff;fill-opacity:1;stroke:none"/>
 <path d="m 33.535 62 -0.541 -2.541 -3.081 0 l -0.523 2.541 -2.39 0 q 0.822 -3.252 1.662 -5.918 0.84 -2.683 1.624 -5.082 l 2.502 0 q 0.822 2.417 1.624 5.136 q 0.822 2.701 1.587 5.864 l -2.465 0 z m -2.054 -8.868 q -0.187 0.622 -0.355 1.191 -0.149 0.551 -0.299 1.102 -0.131 0.533 -0.261 1.084 -0.112 0.551 -0.224 1.137 l 2.259 0 q -0.112 -0.586 -0.224 -1.137 -0.112 -0.551 -0.261 -1.084 -0.131 -0.551 -0.299 -1.102 -0.149 -0.569 -0.336 -1.191 z" style="fill:#fff;fill-opacity:1;stroke:none"/>
 <path d="m 42.811 54.892 q 0.07 0.338 0.211 0.835 0.141 0.498 0.3 1.102 0.176 0.604 0.37 1.297 0.211 0.693 0.405 1.422 0 -0.924 -0.018 -1.973 -0.018 -1.066 -0.035 -2.168 -0.018 -1.102 -0.035 -2.221 q -0.018 -1.137 -0.018 -2.186 l 2.01 0 q -0.053 1.351 -0.106 2.79 -0.053 1.422 -0.123 2.843 -0.07 1.404 -0.176 2.772 q -0.088 1.368 -0.211 2.595 l -1.797 0 q -0.388 -1.12 -0.775 -2.399 -0.388 -1.297 -0.775 -2.47 -0.388 1.12 -0.811 2.435 -0.423 1.315 -0.775 2.435 l -1.797 0 q -0.141 -1.226 -0.247 -2.595 -0.106 -1.386 -0.194 -2.79 -0.07 -1.422 -0.123 -2.843 -0.053 -1.439 -0.088 -2.772 l 2.01 0 q -0.018 1.048 -0.035 2.168 -0.018 1.12 -0.035 2.239 -0.018 1.102 -0.035 2.168 -0.018 1.048 -0.018 1.973 0.159 -0.569 0.352 -1.244 0.211 -0.675 0.388 -1.333 0.194 -0.658 0.352 -1.208 0.159 -0.551 0.247 -0.871 l 1.586 0 z" style="fill:#fff;fill-opacity:1;stroke:none"/>
 <g transform="matrix(0.80051185,0,0,0.80026785,12.788106,12.78717)" style="fill:#fff;fill-opacity:1">
  <g style="clip-path:url(#clipPath-258929573-3);fill:#fff">
   <!-- color: #3d3d3d -->
   <g style="fill:#fff">
    <path d="M 27.08,9.641 23.471,19.793 37.705,17.43 C 35.603,13.438 31.721,10.5 27.08,9.641 m 0,0" style="fill:#fff;stroke:none;fill-rule:nonzero"/>
    <path d="m 38.15 19.449 -10.738 1.988 9.199 10.98 c 2.457 -3.797 3.09 -8.586 1.527 -12.969 m 0.012 0" style="fill:#fff;stroke:none;fill-rule:nonzero"/>
    <path d="m 35.07 33.809 -7.121 -8.164 -5.05 13.344 c 4.566 0.195 9.09 -1.656 12.156 -5.18 m 0.012 0" style="fill:#fff;stroke:none;fill-rule:nonzero"/>
    <path d="m 20.922 38.36 3.617 -10.152 -14.242 2.363 c 2.109 3.996 5.996 6.934 10.625 7.789 m 0 0" style="fill:#fff;stroke:none;fill-rule:nonzero"/>
    <path d="M 9.852,28.559 20.586,26.571 11.387,15.591 C 8.934,19.392 8.297,24.177 9.86,28.56 m -0.008,0" style="fill:#fff;stroke:none;fill-rule:nonzero"/>
    <path d="m 12.926 14.207 7.121 8.164 5.05 -13.344 c -4.563 -0.195 -9.09 1.656 -12.152 5.18 m -0.016 0" style="fill:#fff;stroke:none;fill-rule:nonzero"/>
   </g>
  </g>
 </g>
</svg>
